symbolic/64x64/apps/trine2.svg

<svg xmlns="http://www.w3.org/2000/svg" width="64" height="64" version="1">
 <path style="opacity:0.2" d="m 10.019999,5 c 2.001806,2.7691146 3.024198,5.707313 0,10 -0.3174968,3.75354 0.996787,5.935494 5.488281,5.855468 1.062934,-0.07129 2.750101,-0.282034 3.636719,-1.117186 1.40549,-1.721232 0.860574,-2.622517 0.28125,-2.742188 -0.601993,-0.178234 -2.05809,0.72352 -0.660156,1.390625 0.294699,1.204353 -3.063969,1.079793 -3.683594,0.06641 C 12.75009,14.277357 18.954764,11.275566 26.019999,14 27.468309,25.39679 29.110861,39.918318 27.336405,53.484376 26.175239,56.178254 24.931731,57.795648 22.019999,59 l 0,2 c 4,-2 14,-2 20,-2 l 0,-2 C 39.433191,56.534046 37.379461,54.131188 37.074687,51.714844 36.069685,38.268362 35.334959,28.418474 38.019999,15 l 9.9375,0 c 1.23925,0.02801 1.74765,1.056592 2.0625,4 l 4,0 c -1.395408,-3.332976 -2,-6 -2,-10 -14.939002,2.309403 -25.844416,0.257246 -42,-4 z m 41.277344,32 c -0.75345,0.0032 -1.50132,0.07618 -2.230468,0.207032 -1.409722,0.253 -3.192382,1.031768 -3.550782,2.417968 -0.32788,1.26802 -0.407416,3.012118 1.765624,3.511718 L 48.019999,43 l 0,-2 c 1.209582,-2.469796 3.998968,-2.624526 5.667968,-0.777344 2.068,3.7536 -0.596236,8.124688 -2.523436,10.929688 -1.892,3.122 -4.548532,3.679656 -7.144532,5.847656 l 0,2 c 0,0 8.882,0.54916 12,2 0.43864,-1.81288 4.768318,-5.3245 3.886718,-7.0625 C 58.727437,52.42812 56.019999,53 56.019999,55 l 1.75,-0.03906 c 0.32072,-0.67506 0.14894,-0.804192 0.570312,-0.394532 0.24736,1.21266 -1.034094,1.828558 -1.871094,2.210938 -2.44912,0.223274 -6.450716,0.224508 -6.464842,0.11718 5.4104,-5.3964 12.460206,-12.003182 7.691406,-17.550782 C 55.850331,37.62475 53.557693,36.990184 51.297343,37 Z"/>
 <path style="fill:#fecd38" d="m 10.019999,4 c 2.001806,2.7691146 3.024198,5.7073134 0,10 -0.3174968,3.75354 0.996787,5.935495 5.488281,5.855469 1.062934,-0.07129 2.750101,-0.282034 3.636719,-1.117188 1.40549,-1.721231 0.860574,-2.622516 0.28125,-2.742187 -0.601993,-0.178234 -2.05809,0.72352 -0.660156,1.390625 0.294699,1.204352 -3.063969,1.079794 -3.683594,0.06641 C 12.75009,13.277357 18.954764,10.275566 26.019999,13 27.468309,24.39679 29.110861,38.918318 27.336405,52.484376 26.175239,55.178254 24.931731,56.795648 22.019999,58 l 0,2 c 4,-2 14,-2 20,-2 l 0,-2 C 39.433191,55.534046 37.379461,53.131188 37.074687,50.714844 36.069685,37.268362 35.334959,27.418474 38.019999,14 l 9.9375,0 c 1.23925,0.02801 1.74765,1.056592 2.0625,4 l 4,0 c -1.395408,-3.332976 -2,-6 -2,-10 -14.939002,2.309403 -25.844416,0.2572464 -42,-4 z m 41.277344,32 c -0.75345,0.0032 -1.50132,0.07618 -2.230468,0.207032 -1.409722,0.253 -3.192382,1.031768 -3.550782,2.417968 -0.32788,1.26802 -0.407416,3.012118 1.765624,3.511718 L 48.019999,42 l 0,-2 c 1.209582,-2.469796 3.998968,-2.624526 5.667968,-0.777344 2.068,3.7536 -0.596236,8.124688 -2.523436,10.929688 -1.892,3.122 -4.548532,3.679656 -7.144532,5.847656 l 0,2 c 0,0 8.882,0.54916 12,2 0.43864,-1.81288 4.768318,-5.3245 3.886718,-7.0625 C 58.727437,51.42812 56.019999,52 56.019999,54 l 1.75,-0.03906 c 0.32072,-0.67506 0.14894,-0.804192 0.570312,-0.394532 0.24736,1.21266 -1.034094,1.828558 -1.871094,2.210938 -2.44912,0.223274 -6.450716,0.224508 -6.464842,0.11718 5.4104,-5.3964 12.460206,-12.003182 7.691406,-17.550782 C 55.850331,36.62475 53.557693,35.990184 51.297343,36 Z"/>
 <path style="fill:#ffffff;opacity:0.2" d="M 10.019531 4 C 10.304712 4.3944927 10.562271 4.7944354 10.798828 5.1992188 C 26.514473 9.3122719 37.33016 11.270813 52.019531 9 C 52.019531 12.59096 52.511831 15.111362 53.621094 18 L 54.019531 18 C 52.624123 14.667024 52.019531 12 52.019531 8 C 37.080529 10.309403 26.175115 8.2572464 10.019531 4 z M 11.898438 9.3789062 C 11.796594 10.750823 11.243172 12.263107 10.019531 14 C 9.972801 14.552458 9.9750107 15.058849 10.003906 15.541016 C 10.011411 15.358644 10.003412 15.190564 10.019531 15 C 11.547058 12.831758 12.040451 11.008772 11.898438 9.3789062 z M 19.167969 15.976562 C 18.562469 16.033487 17.736642 16.674899 18.525391 17.230469 C 18.803223 17.034708 19.181332 16.923719 19.425781 16.996094 C 19.623459 17.036928 19.812237 17.176024 19.925781 17.400391 C 20.199574 16.549295 19.828406 16.079264 19.425781 15.996094 C 19.350532 15.973814 19.262666 15.96766 19.167969 15.976562 z M 14.642578 16.1875 C 14.507384 16.876898 14.628777 17.641653 15.082031 18.453125 C 15.701656 19.466509 19.060324 19.591071 18.765625 18.386719 C 18.551221 18.284404 18.42359 18.176971 18.330078 18.068359 C 17.44904 18.452475 15.535811 18.195272 15.082031 17.453125 C 14.837409 17.015171 14.708245 16.594375 14.642578 16.1875 z M 36.173828 32.996094 C 36.127926 38.933744 36.561631 44.85665 37.074219 51.714844 C 37.378993 54.131188 39.432723 56.534046 42.019531 57 L 42.019531 56 C 39.432723 55.534046 37.378993 53.131188 37.074219 50.714844 C 36.590321 44.240505 36.180848 38.602632 36.173828 32.996094 z M 51.296875 36 C 50.543425 36.0032 49.795554 36.076179 49.066406 36.207031 C 47.656684 36.460031 45.874025 37.2388 45.515625 38.625 C 45.381159 39.145024 45.299406 39.743199 45.386719 40.304688 C 45.418262 40.070581 45.460004 39.840106 45.515625 39.625 C 45.874025 38.2388 47.656684 37.460031 49.066406 37.207031 C 49.795554 37.076179 50.543425 37.0032 51.296875 37 C 53.557225 36.990184 55.849862 37.624756 57.695312 39.34375 C 58.663168 40.469668 59.137418 41.639783 59.244141 42.833984 C 59.362211 41.292669 58.931832 39.782207 57.695312 38.34375 C 55.849862 36.624756 53.557225 35.990184 51.296875 36 z M 28.103516 40.111328 C 28.089286 44.248492 27.868995 48.409048 27.335938 52.484375 C 26.174772 55.178253 24.931263 56.795648 22.019531 58 L 22.019531 59 C 24.931263 57.795648 26.174772 56.178253 27.335938 53.484375 C 27.91198 49.080418 28.124131 44.577081 28.103516 40.111328 z M 54.412109 42.744141 C 54.20447 45.481279 52.50722 48.197405 51.164062 50.152344 C 49.272062 53.274344 46.615531 53.832 44.019531 56 L 44.019531 57 C 46.615531 54.832 49.272062 54.274344 51.164062 51.152344 C 52.670974 48.959065 54.6186 45.808534 54.412109 42.744141 z M 58.158203 52.083984 C 57.077098 52.058808 56.019531 52.75 56.019531 54 L 56.302734 53.994141 C 57.025621 52.857172 58.958338 52.724251 59.90625 53.9375 C 59.917812 53.960294 59.919897 53.986369 59.929688 54.009766 C 60.049433 53.610626 60.062173 53.24489 59.90625 52.9375 C 59.46402 52.371482 58.806866 52.09909 58.158203 52.083984 z M 58.220703 54.453125 C 57.891912 55.102949 57.069744 55.502782 56.46875 55.777344 C 54.732021 55.935673 52.267912 55.97764 50.945312 55.953125 C 50.630874 56.266051 50.310275 56.588955 50.003906 56.894531 C 50.018032 57.001859 54.01963 57.000618 56.46875 56.777344 C 57.30575 56.394964 58.587204 55.779066 58.339844 54.566406 C 58.282615 54.510768 58.258769 54.488868 58.220703 54.453125 z"/>
</svg>

<svg xmlns="http://www.w3.org/2000/svg" width="64" height="64" version="1"><path style="opacity:.2" d="M10.02 5c2.002 2.77 3.024 5.707 0 10-.317 3.754.997 5.935 5.488 5.855 1.063-.07 2.75-.282 3.637-1.117 1.405-1.72.86-2.622.281-2.742-.602-.178-2.058.724-.66 1.39.295 1.205-3.064 1.08-3.684.067C12.75 14.277 18.955 11.276 26.02 14c1.448 11.397 3.09 25.918 1.316 39.484-1.16 2.694-2.404 4.312-5.316 5.516v2c4-2 14-2 20-2v-2c-2.587-.466-4.64-2.869-4.945-5.285-1.005-13.447-1.74-23.297.945-36.715h9.937c1.24.028 1.748 1.057 2.063 4h4c-1.395-3.333-2-6-2-10-14.939 2.31-25.844.257-42-4zm41.277 32c-.753.003-1.501.076-2.23.207-1.41.253-3.193 1.032-3.55 2.418-.329 1.268-.408 3.012 1.765 3.512L48.02 43v-2c1.21-2.47 3.999-2.625 5.668-.777 2.068 3.753-.596 8.124-2.523 10.93-1.892 3.121-4.549 3.679-7.145 5.847v2s8.882.55 12 2c.439-1.813 4.768-5.324 3.887-7.063C58.727 52.428 56.02 53 56.02 55l1.75-.04c.32-.674.149-.803.57-.394.248 1.213-1.034 1.829-1.87 2.211-2.45.224-6.451.225-6.466.118 5.41-5.397 12.46-12.004 7.692-17.551-1.846-1.72-4.138-2.354-6.399-2.344z"/><path style="fill:#fecd38" d="M10.02 4c2.002 2.77 3.024 5.707 0 10-.317 3.754.997 5.935 5.488 5.855 1.063-.07 2.75-.282 3.637-1.117 1.405-1.72.86-2.622.281-2.742-.602-.178-2.058.724-.66 1.39.295 1.205-3.064 1.08-3.684.067C12.75 13.277 18.955 10.276 26.02 13c1.448 11.397 3.09 25.918 1.316 39.484-1.16 2.694-2.404 4.312-5.316 5.516v2c4-2 14-2 20-2v-2c-2.587-.466-4.64-2.869-4.945-5.285-1.005-13.447-1.74-23.297.945-36.715h9.937c1.24.028 1.748 1.057 2.063 4h4c-1.395-3.333-2-6-2-10-14.939 2.31-25.844.257-42-4zm41.277 32c-.753.003-1.501.076-2.23.207-1.41.253-3.193 1.032-3.55 2.418-.329 1.268-.408 3.012 1.765 3.512L48.02 42v-2c1.21-2.47 3.999-2.625 5.668-.777 2.068 3.753-.596 8.124-2.523 10.93-1.892 3.121-4.549 3.679-7.145 5.847v2s8.882.55 12 2c.439-1.813 4.768-5.324 3.887-7.063C58.727 51.428 56.02 52 56.02 54l1.75-.04c.32-.674.149-.803.57-.394.248 1.213-1.034 1.829-1.87 2.211-2.45.224-6.451.225-6.466.118 5.41-5.397 12.46-12.004 7.692-17.551-1.846-1.72-4.138-2.354-6.399-2.344z"/><path style="fill:#fff;opacity:.2" d="M10.02 4c.285.394.542.794.779 1.2C26.514 9.311 37.33 11.27 52.019 9c0 3.591.493 6.111 1.602 9h.399c-1.396-3.333-2-6-2-10-14.94 2.31-25.845.257-42-4zm1.878 5.379c-.101 1.372-.655 2.884-1.878 4.621a10.57 10.57 0 0 0-.016 1.541c.007-.182 0-.35.016-.541 1.527-2.168 2.02-3.991 1.878-5.621zm7.27 6.598c-.606.056-1.431.698-.643 1.253.278-.195.656-.306.9-.234a.74.74 0 0 1 .5.404c.275-.85-.097-1.32-.5-1.404a.689.689 0 0 0-.257-.02zm-4.525.21c-.136.69-.014 1.455.439 2.266.62 1.014 3.978 1.138 3.684-.066a1.263 1.263 0 0 1-.436-.319c-.881.384-2.794.127-3.248-.615a3.787 3.787 0 0 1-.44-1.265zm21.53 16.81c-.045 5.937.389 11.86.901 18.718.305 2.416 2.359 4.819 4.946 5.285v-1c-2.587-.466-4.641-2.869-4.946-5.285-.484-6.474-.893-12.112-.9-17.719zM51.298 36c-.754.003-1.501.076-2.23.207-1.41.253-3.193 1.032-3.551 2.418-.135.52-.217 1.118-.13 1.68a5.87 5.87 0 0 1 .13-.68c.358-1.386 2.14-2.165 3.55-2.418.73-.13 1.477-.204 2.23-.207 2.261-.01 4.554.625 6.4 2.344.967 1.126 1.441 2.296 1.548 3.49.118-1.541-.312-3.052-1.549-4.49-1.845-1.72-4.138-2.354-6.398-2.344zm-23.193 4.111c-.015 4.137-.235 8.298-.768 12.373-1.161 2.694-2.405 4.312-5.316 5.516v1c2.911-1.204 4.155-2.822 5.316-5.516.576-4.404.788-8.907.768-13.373zm26.308 2.633c-.208 2.737-1.905 5.453-3.248 7.408-1.892 3.122-4.548 3.68-7.144 5.848v1c2.596-2.168 5.252-2.726 7.144-5.848 1.507-2.193 3.455-5.343 3.248-8.408zm3.746 9.34c-1.08-.025-2.138.666-2.138 1.916l.283-.006c.723-1.137 2.655-1.27 3.603-.056.012.022.014.048.024.072.12-.4.132-.765-.024-1.072-.442-.567-1.1-.839-1.748-.854zm.063 2.37c-.33.649-1.151 1.049-1.752 1.323-1.737.159-4.201.2-5.524.176l-.941.942c.014.107 4.016.106 6.465-.118.837-.382 2.118-.998 1.87-2.21-.056-.056-.08-.078-.118-.114z"/></svg>
